Yaru++/actions/16/draw-cuboid.svg

<svg viewBox="0 0 24 24" xmlns="http://www.w3.org/2000/svg">
  <path d="m11.694916 22.398305c.693532-.46669.0066.000014.730711-.484232l7.687081-5.423348v-1.208634-7.5307124-.402878c-1.074502-.745458-.207722-.143108-.701482-.495852l-6.868685-4.8655176c-.837431-.591262-.0074.000042-.847625-.588826-7.5042853 5.2800016-5.6621533 3.9804795-7.8332243 5.5163216-.590751.457772-.109606.09408-.584569.464856v.3409.03094 7.5307124 1.208634c2.173475 1.533868.317922.224728.526112.371896l7.1609693 5.051466.379971.247926c.264466.180488-1.144231-.784252.350741.236292zm.467654-1.506918v-7.685664l.05846-.09296.204599-.12404 6.751772-4.7725444v7.7166464zm-.935311 0-7.0148253-4.958492v-7.5617084l7.0148253 4.9584924zm.350744-8.522416-6.8394583-4.8345224 6.9563713-4.9275096 6.868684 4.8345356-6.664087 4.7105664z" fill="#808080"/>
</svg>

<svg xmlns="http://www.w3.org/2000/svg" version="1.1" viewBox="0 0 24 24">
 <defs>
  <style id="current-color-scheme" type="text/css">
   .ColorScheme-Text { color:#808080; }
  </style>
 </defs>
 <path class="ColorScheme-Text" d="m 11.694916,22.398305 c 0.693532,-0.46669 0.0066,1.4e-5 0.730711,-0.484232 l 7.687081,-5.423348 V 15.282091 7.7513786 7.3485006 C 19.038206,6.6030426 19.904986,7.2053926 19.411226,6.8526486 L 12.542541,1.987131 c -0.837431,-0.591262 -0.0074,4.2e-5 -0.847625,-0.588826 -7.5042853,5.2800016 -5.6621533,3.9804795 -7.8332243,5.5163216 -0.590751,0.457772 -0.109606,0.09408 -0.584569,0.464856 v 0.3409 0.03094 7.5307124 1.208634 c 2.173475,1.533868 0.317922,0.224728 0.526112,0.371896 l 7.1609693,5.051466 0.379971,0.247926 c 0.264466,0.180488 -1.144231,-0.784252 0.350741,0.236292 z m 0.467654,-1.506918 v -7.685664 l 0.05846,-0.09296 0.204599,-0.12404 6.751772,-4.7725444 v 7.7166464 z m -0.935311,0 -7.0148253,-4.958492 V 8.3711866 L 11.227259,13.329679 Z M 11.578003,12.368971 4.7385447,7.5344486 11.694916,2.606939 18.5636,7.4414746 11.899513,12.152041 Z" style="fill:currentColor"/>
</svg>
